img/icons/hide-password-icon.svg

<svg xmlns="http://www.w3.org/2000/svg" version="1.1" xmlns:xlink="http://www.w3.org/1999/xlink" xmlns:svgjs="http://svgjs.com/svgjs" width="512" height="512" x="0" y="0" viewBox="0 0 128 128" style="enable-background:new 0 0 512 512" xml:space="preserve" class=""><g><path xmlns="http://www.w3.org/2000/svg" id="Hide" d="m79.891 65.078 7.27-7.27c.529 1.979.839 4.048.839 6.192 0 13.234-10.766 24-24 24-2.144 0-4.213-.31-6.192-.839l7.27-7.27c7.949-.542 14.271-6.864 14.813-14.813zm47.605-3.021c-.492-.885-7.47-13.112-21.11-23.474l-5.821 5.821c9.946 7.313 16.248 15.842 18.729 19.602-4.741 7.219-23.339 31.994-55.294 31.994-4.792 0-9.248-.613-13.441-1.591l-6.573 6.573c6.043 1.853 12.685 3.018 20.014 3.018 41.873 0 62.633-36.504 63.496-38.057.672-1.209.672-2.677 0-3.886zm-16.668-39.229-88 88c-.781.781-1.805 1.172-2.828 1.172s-2.047-.391-2.828-1.172c-1.563-1.563-1.563-4.094 0-5.656l11.196-11.196c-18.1-10.927-27.297-27.012-27.864-28.033-.672-1.209-.672-2.678 0-3.887.863-1.552 21.623-38.056 63.496-38.056 10.827 0 20.205 2.47 28.222 6.122l12.95-12.95c1.563-1.563 4.094-1.563 5.656 0s1.563 4.094 0 5.656zm-76.495 65.183 10.127-10.127c-2.797-3.924-4.46-8.709-4.46-13.884 0-13.234 10.766-24 24-24 5.175 0 9.96 1.663 13.884 4.459l8.189-8.189c-6.47-2.591-13.822-4.27-22.073-4.27-31.955 0-50.553 24.775-55.293 31.994 3.01 4.562 11.662 16.11 25.626 24.017zm15.934-15.935 21.809-21.809c-2.379-1.405-5.118-2.267-8.076-2.267-8.822 0-16 7.178-16 16 0 2.958.862 5.697 2.267 8.076z" fill="#a5a5a5" data-original="#a5a5a5" class=""></path></g></svg>

<svg xmlns="http://www.w3.org/2000/svg" width="512" height="512" viewBox="0 0 128 128"><path xmlns="http://www.w3.org/2000/svg" d="M79.891 65.078l7.27-7.27C87.69 59.787 88 61.856 88 64c0 13.234-10.766 24-24 24-2.144 0-4.213-.31-6.192-.839l7.27-7.27a15.929 15.929 0 0014.813-14.813zm47.605-3.021c-.492-.885-7.47-13.112-21.11-23.474l-5.821 5.821c9.946 7.313 16.248 15.842 18.729 19.602C114.553 71.225 95.955 96 64 96c-4.792 0-9.248-.613-13.441-1.591l-6.573 6.573C50.029 102.835 56.671 104 64 104c41.873 0 62.633-36.504 63.496-38.057a3.997 3.997 0 000-3.886zm-16.668-39.229l-88 88C22.047 111.609 21.023 112 20 112s-2.047-.391-2.828-1.172a3.997 3.997 0 010-5.656l11.196-11.196C10.268 83.049 1.071 66.964.504 65.943a4 4 0 010-3.887C1.367 60.504 22.127 24 64 24c10.827 0 20.205 2.47 28.222 6.122l12.95-12.95c1.563-1.563 4.094-1.563 5.656 0s1.563 4.094 0 5.656zM34.333 88.011L44.46 77.884C41.663 73.96 40 69.175 40 64c0-13.234 10.766-24 24-24 5.175 0 9.96 1.663 13.884 4.459l8.189-8.189C79.603 33.679 72.251 32 64 32 32.045 32 13.447 56.775 8.707 63.994c3.01 4.562 11.662 16.11 25.626 24.017zm15.934-15.935l21.809-21.809C69.697 48.862 66.958 48 64 48c-8.822 0-16 7.178-16 16 0 2.958.862 5.697 2.267 8.076z" fill="#a5a5a5" data-original="#a5a5a5"/></svg>
